images/languages/ru.svg

<svg width="21" height="15" viewBox="0 0 21 15" fill="none" xmlns="http://www.w3.org/2000/svg">
<mask id="mask0_116_40" style="mask-type:alpha" maskUnits="userSpaceOnUse" x="0" y="0" width="21" height="15">
<path d="M19 0H2C0.89543 0 0 0.89543 0 2V13C0 14.1046 0.89543 15 2 15H19C20.1046 15 21 14.1046 21 13V2C21 0.89543 20.1046 0 19 0Z" fill="white"/>
</mask>
<g mask="url(#mask0_116_40)">
<path d="M19 0H2C0.89543 0 0 0.89543 0 2V13C0 14.1046 0.89543 15 2 15H19C20.1046 15 21 14.1046 21 13V2C21 0.89543 20.1046 0 19 0Z" fill="#0034A9"/>
<path fill-rule="evenodd" clip-rule="evenodd" d="M0 10H21V15H0V10Z" fill="#D7280F"/>
<path fill-rule="evenodd" clip-rule="evenodd" d="M0 0H21V5H0V0Z" fill="white"/>
</g>
</svg>

<svg width="21" height="15" fill="none" xmlns="http://www.w3.org/2000/svg"><mask id="a" style="mask-type:alpha" maskUnits="userSpaceOnUse" x="0" y="0" width="21" height="15"><path d="M19 0H2a2 2 0 0 0-2 2v11a2 2 0 0 0 2 2h17a2 2 0 0 0 2-2V2a2 2 0 0 0-2-2z" fill="#fff"/></mask><g mask="url(#a)"><path d="M19 0H2a2 2 0 0 0-2 2v11a2 2 0 0 0 2 2h17a2 2 0 0 0 2-2V2a2 2 0 0 0-2-2z" fill="#0034A9"/><path fill-rule="evenodd" clip-rule="evenodd" d="M0 10h21v5H0v-5z" fill="#D7280F"/><path fill-rule="evenodd" clip-rule="evenodd" d="M0 0h21v5H0V0z" fill="#fff"/></g></svg>
